svg/s/KE.svg

<svg width="16" height="12" viewBox="0 0 16 12" fill="none" xmlns="http://www.w3.org/2000/svg">
<g clip-path="url(#clip0_270_55036)">
<rect width="16" height="12" fill="white"/>
<path fill-rule="evenodd" clip-rule="evenodd" d="M0 0H16V12H0V0Z" fill="#0067C3"/>
<path fill-rule="evenodd" clip-rule="evenodd" d="M0 0V4H16V0H0Z" fill="#272727"/>
<path fill-rule="evenodd" clip-rule="evenodd" d="M0 8V12H16V8H0Z" fill="#4E8B1D"/>
<path d="M0 3.5H-0.5V4V8V8.5H0H16H16.5V8V4V3.5H16H0Z" fill="#E31D1C" stroke="#F7FCFF"/>
<path d="M9.81171 2.01525C9.92589 1.80988 10.2329 1.58563 10.7327 1.34247C10.7498 1.33412 10.7706 1.33364 10.7882 1.34119C10.8181 1.35397 10.8305 1.38558 10.8158 1.41171L5.63701 10.7258L5.36737 10.6104L9.93242 2.40014C9.7257 2.3706 9.68546 2.2423 9.81171 2.01525Z" fill="white"/>
<path d="M6.18277 2.01525C6.30901 2.2423 6.26877 2.3706 6.06205 2.40014L10.6271 10.6104L10.3575 10.7258L5.17869 1.41171C5.16396 1.38558 5.17637 1.35397 5.20624 1.34119C5.22389 1.33364 5.24463 1.33412 5.26181 1.34247C5.76159 1.58563 6.06858 1.80988 6.18277 2.01525Z" fill="white"/>
<path d="M2.49999 9.94737C4.81958 9.94737 6.69999 8.29789 6.69999 6.26316C6.69999 4.22843 4.81958 2.57895 2.49999 2.57895C0.180392 2.57895 -1.70001 4.22843 -1.70001 6.26316C-1.70001 8.29789 0.180392 9.94737 2.49999 9.94737Z" fill="#272727"/>
<path d="M13.5 9.94737C15.8196 9.94737 17.7 8.29789 17.7 6.26316C17.7 4.22843 15.8196 2.57895 13.5 2.57895C11.1804 2.57895 9.29999 4.22843 9.29999 6.26316C9.29999 8.29789 11.1804 9.94737 13.5 9.94737Z" fill="#272727"/>
<path fill-rule="evenodd" clip-rule="evenodd" d="M8.11996 5.69999C8.39383 5.52932 8.59996 4.78593 8.59996 3.89474C8.59996 3.00354 8.39383 2.26016 8.11996 2.08948V5.69999ZM7.81996 5.65251C7.57654 5.41778 7.39996 4.71957 7.39996 3.89474C7.39996 3.06991 7.57654 2.3717 7.81996 2.13696V5.65251ZM7.81996 6.87381V10.3894C7.57654 10.1546 7.39996 9.45641 7.39996 8.63158C7.39996 7.80675 7.57654 7.10854 7.81996 6.87381ZM8.11996 10.4368V6.82632C8.39383 6.997 8.59996 7.74039 8.59996 8.63158C8.59996 9.52278 8.39383 10.2662 8.11996 10.4368Z" fill="#F7FCFF"/>
<path d="M7.99996 5.73684C8.33133 5.73684 8.59996 5.97248 8.59996 6.26316C8.59996 6.55383 8.33133 6.78947 7.99996 6.78947C7.66859 6.78947 7.39996 6.55383 7.39996 6.26316C7.39996 5.97248 7.66859 5.73684 7.99996 5.73684Z" fill="#F7FCFF"/>
</g>
<defs>
<clipPath id="clip0_270_55036">
<rect width="16" height="12" fill="white"/>
</clipPath>
</defs>
</svg>

<svg width="16" height="12" fill="none" xmlns="http://www.w3.org/2000/svg">
  <mask id="a" maskUnits="userSpaceOnUse" x="0" y="0" width="16" height="12">
    <path fill="#fff" d="M0 0h16v12H0z"/>
  </mask>
  <g mask="url(#a)">
    <path fill-rule="evenodd" clip-rule="evenodd" d="M0 0h16v12H0V0z" fill="#0067C3"/>
    <path fill-rule="evenodd" clip-rule="evenodd" d="M0 0v4h16V0H0z" fill="#272727"/>
    <path fill-rule="evenodd" clip-rule="evenodd" d="M0 8v4h16V8H0z" fill="#4E8B1D"/>
    <path d="M0 3.5h-.5v5h17v-5H0z" fill="#E31D1C" stroke="#F7FCFF"/>
  </g>
  <path d="M9.812 2.015c.114-.205.42-.43.92-.673a.068.068 0 01.056 0c.03.012.043.044.028.07l-5.179 9.314-.27-.116L9.932 2.4c-.206-.03-.247-.158-.12-.385z" fill="#fff"/>
  <path d="M6.183 2.015c.126.227.086.356-.12.385l4.564 8.21-.27.116L5.18 1.412c-.015-.026-.003-.058.027-.07a.068.068 0 01.056 0c.5.244.807.468.92.673z" fill="#fff"/>
  <path fill-rule="evenodd" clip-rule="evenodd" d="M8 10.474c.598 0 3-1.885 3-4.21 0-2.326-2.402-4.211-3-4.211-.598 0-3 1.885-3 4.21 0 2.326 2.402 4.21 3 4.21z" fill="#E31D1C"/>
  <mask id="b" maskUnits="userSpaceOnUse" x="5" y="2" width="6" height="9">
    <path fill-rule="evenodd" clip-rule="evenodd" d="M8 10.474c.598 0 3-1.885 3-4.21 0-2.326-2.402-4.211-3-4.211-.598 0-3 1.885-3 4.21 0 2.326 2.402 4.21 3 4.21z" fill="#fff"/>
  </mask>
  <g mask="url(#b)">
    <path d="M2.5 9.947c2.32 0 4.2-1.65 4.2-3.684 0-2.035-1.88-3.684-4.2-3.684-2.32 0-4.2 1.65-4.2 3.684 0 2.035 1.88 3.684 4.2 3.684zm11 0c2.32 0 4.2-1.65 4.2-3.684 0-2.035-1.88-3.684-4.2-3.684-2.32 0-4.2 1.65-4.2 3.684 0 2.035 1.88 3.684 4.2 3.684z" fill="#272727"/>
    <path fill-rule="evenodd" clip-rule="evenodd" d="M8.12 5.7c.274-.17.48-.914.48-1.805 0-.891-.206-1.635-.48-1.806V5.7zm-.3-.047c-.243-.235-.42-.933-.42-1.758s.177-1.523.42-1.758v3.516zm0 1.22v3.516c-.243-.234-.42-.933-.42-1.757 0-.825.177-1.523.42-1.758zm.3 3.564v-3.61c.274.17.48.913.48 1.805 0 .89-.206 1.634-.48 1.805z" fill="#F7FCFF"/>
    <path d="M8 5.737c.331 0 .6.235.6.526 0 .29-.269.526-.6.526-.331 0-.6-.235-.6-.526 0-.29.269-.526.6-.526z" fill="#F7FCFF"/>
  </g>
</svg>
